_inc/systems/logos/3do.svg

<?xml version="1.0" encoding="utf-8"?>
<svg id="svg2" version="1.1" viewBox="0 0 264 56" xmlns="http://www.w3.org/2000/svg">
  <path d="M 70.153 26.237 L 70.153 26.399 C 77.039 26.535 82.124 27.991 85.407 30.767 C 88.69 33.543 90.332 36.9 90.332 40.833 C 90.332 45.227 88.466 48.854 84.727 51.707 C 80.995 54.569 76.022 56 69.824 56 C 64.467 56 60.327 54.858 57.396 52.584 C 54.465 50.311 53 47.723 53 44.809 C 53 42.877 53.657 41.31 54.97 40.126 C 56.283 38.942 57.861 38.355 59.695 38.355 C 61.416 38.355 62.898 38.875 64.123 39.904 C 65.356 40.944 65.964 42.315 65.964 44.01 C 65.964 46.275 64.539 48.173 61.68 49.707 C 61.12 50.004 60.832 50.345 60.832 50.72 C 60.832 51.418 61.632 52.031 63.242 52.559 C 64.843 53.087 66.477 53.343 68.158 53.343 C 73.66 53.343 76.415 49.042 76.415 40.441 C 76.415 31.926 73.108 27.668 66.501 27.668 L 61.016 27.906 C 59.91 27.906 59.349 27.472 59.349 26.604 C 59.349 25.607 59.934 25.104 61.096 25.104 L 65.092 25.266 C 69.167 25.266 71.898 24.304 73.283 22.37 C 74.677 20.447 75.365 17.704 75.365 14.144 C 75.365 10.482 74.845 7.783 73.796 6.063 C 72.747 4.333 70.945 3.474 68.398 3.474 C 67.014 3.474 65.708 3.722 64.491 4.223 C 63.274 4.719 62.658 5.203 62.658 5.689 C 62.658 6.139 63.058 6.608 63.859 7.094 C 65.957 8.516 67.014 10.056 67.014 11.718 C 67.014 13.352 66.429 14.647 65.252 15.618 C 64.075 16.581 62.753 17.066 61.279 17.066 C 59.582 17.066 58.069 16.512 56.739 15.413 C 55.41 14.306 54.737 12.944 54.737 11.301 C 54.737 8.507 56.219 6.089 59.182 4.054 C 62.144 2.009 65.94 0.988 70.585 0.988 C 75.718 0.988 80.042 2.146 83.566 4.453 C 87.097 6.761 88.858 9.716 88.858 13.336 C 88.858 20.455 82.62 24.755 70.153 26.237" style="fill-opacity: 1; fill-rule: nonzero; stroke: none; fill: rgb(255, 255, 255);" id="path18"/>
  <path d="M 103.016 52.354 L 103.016 3.389 L 95.793 3.389 L 95.793 0.742 L 124.733 0.742 C 133.101 0.742 139.731 3.261 144.608 8.311 C 149.485 13.352 151.927 19.722 151.927 27.412 C 151.927 31.397 151.182 35.152 149.694 38.652 C 148.203 42.162 145.914 45.355 142.822 48.225 C 139.731 51.094 136.56 52.942 133.309 53.768 C 130.058 54.594 126.07 55.004 121.33 55.004 L 95.793 55.004 L 95.793 52.354 Z M 116.942 3.389 L 116.942 52.354 L 121.449 52.354 C 128.344 52.354 132.508 50.43 133.941 46.59 C 135.375 42.74 136.088 36.166 136.088 26.859 C 136.088 19.578 135.647 14.34 134.767 11.165 C 133.894 7.98 132.557 5.884 130.77 4.889 C 128.985 3.891 126.711 3.389 123.964 3.389 L 116.942 3.389" style="fill-opacity: 1; fill-rule: nonzero; stroke: none; fill: rgb(255, 255, 255);" id="path20"/>
  <path d="M 160.007 27.668 C 160.007 19.552 162.521 12.911 167.566 7.741 C 172.603 2.581 178.649 0 185.695 0 C 192.238 0 198.092 2.427 203.256 7.28 C 208.422 12.135 211 19.041 211 27.991 C 211 36.379 208.566 43.106 203.681 48.165 C 198.797 53.223 192.831 55.753 185.784 55.753 C 178.169 55.753 171.963 53.061 167.183 47.696 C 162.401 42.331 160.007 35.655 160.007 27.668 Z M 195.161 27.897 C 195.161 19.586 195 14.11 194.68 11.471 C 194.352 8.822 193.519 6.693 192.174 5.074 C 190.828 3.457 188.61 2.648 185.528 2.648 C 182.925 2.648 180.851 3.303 179.305 4.607 C 177.761 5.918 176.8 8.013 176.414 10.9 C 176.038 13.787 175.846 19.423 175.846 27.812 C 175.846 36.115 176.005 41.616 176.335 44.299 C 176.655 46.981 177.52 49.119 178.921 50.712 C 180.323 52.303 182.525 53.095 185.528 53.095 C 188.018 53.095 190.052 52.457 191.621 51.18 C 193.191 49.893 194.176 47.815 194.569 44.929 C 194.969 42.042 195.161 36.362 195.161 27.897" style="fill-opacity: 1; fill-rule: nonzero; stroke: none; fill: rgb(255, 255, 255);" id="path22"/>
</svg>

<svg xmlns="http://www.w3.org/2000/svg" viewBox="0 0 264 56"><path d="M70.15 26.24v.16q10.33.21 15.26 4.37t4.92 10.06q0 6.6-5.6 10.88T69.83 56q-8.04 0-12.43-3.42-4.4-3.4-4.4-7.77 0-2.9 1.97-4.68a6.8 6.8 0 0 1 4.73-1.78q2.59 0 4.42 1.55a5.1 5.1 0 0 1 1.84 4.11q0 3.4-4.28 5.7-.85.45-.85 1.01 0 1.05 2.41 1.84 2.4.79 4.92.78 8.25 0 8.26-12.9 0-12.77-9.92-12.77l-5.48.24q-1.67 0-1.67-1.3 0-1.5 1.75-1.5l4 .16q6.1 0 8.18-2.9 2.09-2.88 2.08-8.23 0-5.5-1.56-8.08-1.58-2.6-5.4-2.59-2.1 0-3.9.75-1.84.74-1.84 1.47 0 .68 1.2 1.4Q67 9.23 67 11.72q0 2.45-1.76 3.9a6 6 0 0 1-3.97 1.45q-2.55 0-4.54-1.66a5.1 5.1 0 0 1-2-4.1q0-4.2 4.44-7.26T70.58 1q7.7 0 12.99 3.46t5.29 8.89q0 10.67-18.7 12.9m32.86 26.1V3.4h-7.23V.74h28.94q12.56 0 19.88 7.57 7.32 7.56 7.32 19.1 0 5.99-2.24 11.24a28 28 0 0 1-6.87 9.58q-4.63 4.3-9.51 5.54A49 49 0 0 1 121.33 55H95.79v-2.65ZM116.94 3.4v48.96h4.5q10.35 0 12.5-5.76t2.15-19.73q0-10.92-1.32-15.7t-4-6.27-6.8-1.5zM160 27.67q0-12.18 7.57-19.93Q175.12 0 185.7 0q9.81 0 17.56 7.28T211 27.99q0 12.59-7.32 20.18a24 24 0 0 1-17.9 7.58q-11.42 0-18.6-8.05-7.17-8.06-7.17-20.03m35.16.23q0-12.47-.48-16.43-.5-3.97-2.5-6.4-2.03-2.42-6.65-2.42-3.9 0-6.22 1.96-2.32 1.95-2.9 6.29-.56 4.33-.56 16.91 0 12.45.49 16.49.47 4.02 2.58 6.41 2.1 2.39 6.6 2.38 3.75 0 6.1-1.91 2.36-1.93 2.95-6.25.6-4.34.6-17.03" style="fill-opacity:1;fill-rule:nonzero;stroke:none;fill:#fff"/></svg>
